public/avatar/item2/69.svg

<svg xmlns:xlink="http://www.w3.org/1999/xlink" height="99.2" width="82.2" xmlns="http://www.w3.org/2000/svg"><use height="15.7" transform="translate(35.1 69.25)" width="7.8" xlink:href="#a"/><defs><g id="a" fill-rule="evenodd"><path d="M6.05 25.8h.1q-.2-1.65 1.25-3 .3-.35.7-.3 2.7.6 2.1 3.2h.25q2.7 1.45.45 3.55l-.9.3-.3-.05-.25-.05-.45-.2v.45q.35.05.6.25l.05.1-.7.35-.1.55-.3 1.5-.1 1.2-.25 3.45-.05.7-.05-.7q-.35-2.6-.2-5.25l-.15-.9v-.45q-.6-.15-1.1-.65-.1-.15.1-.2l.65-.1h.35v-.4q-.4.3-1.05.3h-.55q-2.05-.1-2.05-2.3 0-1.35 1.35-1.45l.25.05h.25l.1.05.2.1q.85.3 1.35 1.25l-1.95-.6q-.4-.15-.6.3-.4 1.25.85 1.55l1.6.1-2.2-.05-.65-.8.65.8 2.2.05-1.6-.1q-1.25-.3-.85-1.55.2-.45.6-.3l1.95.6q-.5-.95-1.35-1.25l-.2-.1M4.6 27.35v.05q-.1.2.05.25L5 27.6v-.35l-.3-.1h-.05l-.05.2-.1-.3q-.05-.7.5-1.1-.35.2-.4.6l.6-.4q.75.5 1.45.3v-.05l-.4-.5.4.5v.05q-.7.2-1.45-.3l-.6.4q.05-.4.4-.6-.55.4-.5 1.1l.1.3m3.4-3.3q-1 1.35-.2 2.75l.4.55.55-.9.05-.05q.4-1.2-.4-2.25l-.4-.1m1.9.2Q9.65 23.5 8.55 23q-1.2.35-1.6 1.05-.4.7 0 1.7-.2-.8.35-1.5.25-.3.6-.3 1.55-.05 1.5 1.95h.05q.65-.95.45-1.65M8.35 27.6l-.1-.1q-.35.1-.45.5-.05.25.15.3 1.1.35.8-.25l-.4-.45m.65.2v.05q1.7 1.2 1.6-.6l-.5-.4-.5.3-.55.55-.05.1m-3.55-2.1-.25.1-.2.15.2-.15.25-.1m.1 1.1q-.75 1.65 1.4 1.45l.25-.15-.2-.25-.35-.65q-.5-.35-1.1-.4m3.25 3.05q.4-.3-.35-.95-.5.15-.45.75l.2.25.55-.05h.05" fill="#765425" transform="translate(-4.1 -22.5)"/><path d="M4.65 27.65q-.15-.05-.05-.25v-.05l.05-.2h.05l.3.1v.35l-.35.05m5.25-3.4-.2.25q-.1.2-.35 0-1.2-1.2-2.4-.45.4-.7 1.6-1.05 1.1.5 1.35 1.25m1.75 2.8-.3.3q-.1.1-.25-.15-.5-1.05-1.65-.6l.2-.35.25-.1.4-.1.15-.05 1.2 1.05m-2.9 1-.6-.25q-.15-.1.1-.2h.1l.4.45m0 1.8-.4-.3q-.15-.1.1-.2h.1l.25.5h-.05" fill="#fff" transform="translate(-4.1 -22.5)"/><path d="M6.95 24.05q1.2-.75 2.4.45.25.2.35 0l.2-.25q.2.7-.45 1.65H9.4q.05-2-1.5-1.95-.35 0-.6.3-.55.7-.35 1.5-.4-1 0-1.7m4.7 3L10.45 26l-.15.05-.4.1-.25.1-.2.35q1.15-.45 1.65.6.15.25.25.15l.3-.3v.6l-.2.35q-.35-.1-.2-.4l.1-.15h.1l.2.15-.2-.15h-.1l-.1.15q-.15.3.2.4l.2-.35v-.6m0 .6-1.25 1.2-.95.05q-.4-.1-.3-.45 1.85.85 1.5-1.1-.15-.95-.95-.4l-1.1.7q.25-1.25 1.3-1.5-1.05.25-1.3 1.5l1.1-.7q.8-.55.95.4.35 1.95-1.5 1.1-.1.35.3.45l.95-.05 1.25-1.2m-3.3-.05h-.1q-.25.1-.1.2l.6.25q.3.6-.8.25-.2-.05-.15-.3.1-.4.45-.5l.1.1m.45 2.25-.25-.5h-.1q-.25.1-.1.2l.4.3-.55.05-.2-.25q-.05-.6.45-.75.75.65.35.95" fill="#deb762" transform="translate(-4.1 -22.5)"/><path d="M10 29.55q.45.6.45 1.45v4.85q0 .95-.75 1.6-.65.75-1.6.75H8q-1 0-1.7-.75-.65-.65-.65-1.6V31q0-.9.5-1.55h.4l-.1.1q-.7.7-.6 1.6v4.5q-.1.9.6 1.55.65.65 1.55.65h.1q.9 0 1.5-.65.65-.65.7-1.55v-4.5q-.05-.9-.7-1.6l-.15-.1.25.05.3.05" fill="#744e22" transform="translate(-4.1 -22.5)"/><path d="m9.45 29.45.15.1q.65.7.7 1.6v4.5q-.05.9-.7 1.55-.6.65-1.5.65H8q-.9 0-1.55-.65-.7-.65-.6-1.55v-4.5q-.1-.9.6-1.6l.1-.1h.15q.65 0 1.05-.3v.4H7.4l-.65.1q-.2.05-.1.2.5.5 1.1.65v.45h-1.2V31l.4 5.6.25.2.9.3.05.7.05-.7q1.65.2 1.5-1.85-.1-2.3.1-4.45l-.95.15.1-.55.7-.35-.05-.1q-.25-.2-.6-.25v-.45l.45.2" fill="#ddb45d" transform="translate(-4.1 -22.5)"/><path d="m8.85 30.95.95-.15q-.2 2.15-.1 4.45.15 2.05-1.5 1.85l.25-3.45.1-1.2.3-1.5M8.1 37.1l-.9-.3-.25-.2-.4-5.6v-.05h1.2l.15.9q-.15 2.65.2 5.25" fill="#eed8ac" transform="translate(-4.1 -22.5)"/></g></defs></svg>

<?xml version="1.0" encoding="UTF-8" standalone="no"?>
<svg xmlns:xlink="http://www.w3.org/1999/xlink" height="99.2px" width="82.2px" xmlns="http://www.w3.org/2000/svg">
  <g transform="matrix(1.0, 0.0, 0.0, 1.0, 31.0, 46.75)">
    <use height="15.7" transform="matrix(1.0, 0.0, 0.0, 1.0, 4.1, 22.5)" width="7.8" xlink:href="#shape0"/>
  </g>
  <defs>
    <g id="shape0" transform="matrix(1.0, 0.0, 0.0, 1.0, -4.1, -22.5)">
      <path d="M6.05 25.8 L6.15 25.8 Q5.95 24.15 7.4 22.8 7.7 22.45 8.1 22.5 10.8 23.1 10.2 25.7 L10.45 25.7 Q13.15 27.15 10.9 29.25 L10.0 29.55 9.7 29.5 9.45 29.45 9.0 29.25 9.0 29.7 Q9.35 29.75 9.6 29.95 L9.65 30.05 8.95 30.4 8.85 30.95 8.55 32.45 8.45 33.65 8.2 37.1 8.15 37.8 8.1 37.1 Q7.75 34.5 7.9 31.85 L7.75 30.95 7.75 30.5 Q7.15 30.35 6.65 29.85 6.55 29.7 6.75 29.65 L7.4 29.55 7.75 29.55 7.75 29.15 Q7.35 29.45 6.7 29.45 L6.55 29.45 6.15 29.45 Q4.1 29.35 4.1 27.15 4.1 25.8 5.45 25.7 L5.7 25.75 5.95 25.75 6.05 25.8 6.25 25.9 Q7.1 26.2 7.6 27.15 L5.65 26.55 Q5.25 26.4 5.05 26.85 4.65 28.1 5.9 28.4 L7.5 28.5 5.3 28.45 4.65 27.65 5.3 28.45 7.5 28.5 5.9 28.4 Q4.65 28.1 5.05 26.85 5.25 26.4 5.65 26.55 L7.6 27.15 Q7.1 26.2 6.25 25.9 L6.05 25.8 M4.6 27.35 L4.6 27.4 Q4.5 27.6 4.65 27.65 L5.0 27.6 5.0 27.25 4.7 27.15 4.65 27.15 4.6 27.35 4.5 27.05 Q4.45 26.35 5.0 25.95 4.65 26.15 4.6 26.55 L5.2 26.15 Q5.95 26.65 6.65 26.45 L6.65 26.4 6.25 25.9 6.65 26.4 6.65 26.45 Q5.95 26.65 5.2 26.15 L4.6 26.55 Q4.65 26.15 5.0 25.95 4.45 26.35 4.5 27.05 L4.6 27.35 M8.0 24.05 Q7.0 25.4 7.8 26.8 L8.2 27.35 8.75 26.45 8.8 26.4 Q9.2 25.2 8.4 24.15 L8.0 24.05 M9.9 24.25 Q9.65 23.5 8.55 23.0 7.35 23.35 6.95 24.05 6.55 24.75 6.95 25.75 6.75 24.95 7.3 24.25 7.55 23.95 7.9 23.95 9.45 23.9 9.4 25.9 L9.45 25.9 Q10.1 24.95 9.9 24.25 M8.35 27.6 L8.25 27.5 Q7.9 27.6 7.8 28.0 7.75 28.25 7.95 28.3 9.05 28.65 8.75 28.05 L8.35 27.6 M9.0 27.8 L9.0 27.85 Q10.7 29.05 10.6 27.25 L10.1 26.85 9.6 27.15 9.05 27.7 9.0 27.8 M5.45 25.7 L5.2 25.8 5.0 25.95 5.2 25.8 5.45 25.7 M5.55 26.8 Q4.8 28.45 6.95 28.25 L7.2 28.1 7.0 27.85 6.65 27.2 Q6.15 26.85 5.55 26.8 M8.8 29.85 Q9.2 29.55 8.45 28.9 7.95 29.05 8.0 29.65 L8.2 29.9 8.75 29.85 8.8 29.85" fill="#765425" fill-rule="evenodd" stroke="none"/>
      <path d="M4.65 27.65 Q4.5 27.6 4.6 27.4 L4.6 27.35 4.65 27.15 4.7 27.15 5.0 27.25 5.0 27.6 4.65 27.65 M9.9 24.25 L9.7 24.5 Q9.6 24.7 9.35 24.5 8.15 23.3 6.95 24.05 7.35 23.35 8.55 23.0 9.65 23.5 9.9 24.25 M11.65 27.05 L11.35 27.35 Q11.25 27.45 11.1 27.2 10.6 26.15 9.45 26.6 L9.65 26.25 9.9 26.15 10.3 26.05 10.45 26.0 11.65 27.05 M8.75 28.05 L8.15 27.8 Q8.0 27.7 8.25 27.6 L8.35 27.6 8.75 28.05 M8.75 29.85 L8.35 29.55 Q8.2 29.45 8.45 29.35 L8.55 29.35 8.8 29.85 8.75 29.85" fill="#ffffff" fill-rule="evenodd" stroke="none"/>
      <path d="M6.95 24.05 Q8.15 23.3 9.35 24.5 9.6 24.7 9.7 24.5 L9.9 24.25 Q10.1 24.95 9.45 25.9 L9.4 25.9 Q9.45 23.9 7.9 23.95 7.55 23.95 7.3 24.25 6.75 24.95 6.95 25.75 6.55 24.75 6.95 24.05 M11.65 27.05 L10.45 26.0 10.3 26.05 9.9 26.15 9.65 26.25 9.45 26.6 Q10.6 26.15 11.1 27.2 11.25 27.45 11.35 27.35 L11.65 27.05 11.65 27.6 11.65 27.65 11.45 28.0 Q11.1 27.9 11.25 27.6 L11.35 27.45 11.45 27.45 11.65 27.6 11.45 27.45 11.35 27.45 11.25 27.6 Q11.1 27.9 11.45 28.0 L11.65 27.65 11.65 27.6 11.65 27.05 M11.65 27.65 L10.4 28.85 9.45 28.9 Q9.05 28.8 9.15 28.45 11.0 29.3 10.65 27.35 10.5 26.4 9.7 26.95 L8.6 27.65 Q8.85 26.4 9.9 26.15 8.85 26.4 8.6 27.65 L9.7 26.95 Q10.5 26.4 10.65 27.35 11.0 29.3 9.15 28.45 9.05 28.8 9.45 28.9 L10.4 28.85 11.65 27.65 M8.35 27.6 L8.25 27.6 Q8.0 27.7 8.15 27.8 L8.75 28.05 Q9.05 28.65 7.95 28.3 7.75 28.25 7.8 28.0 7.9 27.6 8.25 27.5 L8.35 27.6 M8.8 29.85 L8.55 29.35 8.45 29.35 Q8.2 29.45 8.35 29.55 L8.75 29.85 8.2 29.9 8.0 29.65 Q7.95 29.05 8.45 28.9 9.2 29.55 8.8 29.85" fill="#deb762" fill-rule="evenodd" stroke="none"/>
      <path d="M10.0 29.55 Q10.45 30.15 10.45 31.0 L10.45 35.85 Q10.45 36.8 9.7 37.45 9.05 38.2 8.1 38.2 L8.0 38.2 Q7.0 38.2 6.3 37.45 5.65 36.8 5.65 35.85 L5.65 31.0 Q5.65 30.1 6.15 29.45 L6.55 29.45 6.45 29.55 Q5.75 30.25 5.85 31.15 L5.85 35.65 Q5.75 36.55 6.45 37.2 7.1 37.85 8.0 37.85 L8.1 37.85 Q9.0 37.85 9.6 37.2 10.25 36.55 10.3 35.65 L10.3 31.15 Q10.25 30.25 9.6 29.55 L9.45 29.45 9.7 29.5 10.0 29.55" fill="#744e22" fill-rule="evenodd" stroke="none"/>
      <path d="M9.45 29.45 L9.6 29.55 Q10.25 30.25 10.3 31.15 L10.3 35.65 Q10.25 36.55 9.6 37.2 9.0 37.85 8.1 37.85 L8.0 37.85 Q7.1 37.85 6.45 37.2 5.75 36.55 5.85 35.65 L5.85 31.15 Q5.75 30.25 6.45 29.55 L6.55 29.45 6.7 29.45 Q7.35 29.45 7.75 29.15 L7.75 29.55 7.4 29.55 6.75 29.65 Q6.55 29.7 6.65 29.85 7.15 30.35 7.75 30.5 L7.75 30.95 6.55 30.95 6.55 31.0 6.95 36.6 7.2 36.8 8.1 37.1 8.15 37.8 8.2 37.1 Q9.85 37.3 9.7 35.25 9.6 32.95 9.8 30.8 L8.85 30.95 8.95 30.4 9.65 30.05 9.6 29.95 Q9.35 29.75 9.0 29.7 L9.0 29.25 9.45 29.45" fill="#ddb45d" fill-rule="evenodd" stroke="none"/>
      <path d="M8.85 30.95 L9.8 30.8 Q9.6 32.95 9.7 35.25 9.85 37.3 8.2 37.1 L8.45 33.65 8.55 32.45 8.85 30.95 M8.1 37.1 L7.2 36.8 6.95 36.6 6.55 31.0 6.55 30.95 7.75 30.95 7.9 31.85 Q7.75 34.5 8.1 37.1" fill="#eed8ac" fill-rule="evenodd" stroke="none"/>
    </g>
  </defs>
</svg>
